!!!OTL: ES WAR EINMAL EIN JUNGER KNAB
!!!ARE: Europa, Mitteleuropa, Italia, Tirol, Meran
!!!SCT: E0093B
!!!YEM: Copyright 1995, estate of Helmut Schaffrath.
**kern
*ICvox
*Ivox
*M3/4
*k[b-]
*F:
{8f
8f
8a
=1
4.cc
8dd
8b-
8cc
=2
4a
8r}
{8f
8f
8a
=3
4.cc
8dd
8b-
8cc
=4
4a
8r}
{8f
8f
8f
=5
4dd
8b-
8b-
8ff
8dd
=6
4.cc}
{8a
8a
8a
=7
4g
8cc
8cc
8b-
16cc
16b-
=8
4a
8r}
==
!!!AGN: erzaehlendes Volks - Lied, Sage, Liebe, Leid, Tod, Ballade ?
!!!ONB: ESAC (Essen Associative Code) Database: ERK1
!!!AMT: simple triple
!!!AIN: vox
!!!EED: Helmut Schaffrath
!!!EEV: 1.0
*-
